public/sheesh/icons12.svg

<svg width="42" height="42" viewBox="0 0 42 42" fill="none" xmlns="http://www.w3.org/2000/svg">
<rect width="42" height="42" rx="8" fill="#1D202F"/>
<path fill-rule="evenodd" clip-rule="evenodd" d="M13.2502 15.75C13.2502 13.13 15.3802 11 18.0002 11C20.6202 11 22.7502 13.13 22.7502 15.75C22.7402 18.32 20.7302 20.4 18.1702 20.49H18.1502H18.1002C18.0402 20.48 17.9602 20.48 17.8802 20.49C15.2602 20.4 13.2502 18.32 13.2502 15.75ZM12.93 23.1499C15.74 21.2899 20.29 21.2899 23.08 23.1499C24.34 23.9899 25.03 25.1299 25.04 26.3599C25.04 27.5999 24.34 28.7399 23.08 29.5899C21.68 30.5299 19.84 30.9999 18 30.9999C16.16 30.9999 14.32 30.5299 12.92 29.5899C11.66 28.7499 10.96 27.6099 10.96 26.3799C10.96 25.1499 11.66 23.9999 12.93 23.1499ZM28.9901 16.3401C29.1501 18.2801 27.7701 19.9801 25.8601 20.2101H25.8401H25.8101C25.7501 20.2101 25.6901 20.2101 25.6401 20.2301C24.6701 20.2801 23.7801 19.9701 23.1101 19.4001C24.1401 18.4801 24.7301 17.1001 24.6101 15.6001C24.5401 14.7901 24.2601 14.0501 23.8401 13.4201C24.2201 13.2301 24.6601 13.1101 25.1101 13.0701C27.0701 12.9001 28.8201 14.3601 28.9901 16.3401ZM29.25 27.9704C30.29 27.4004 30.91 26.5604 30.99 25.5904C31.08 24.6304 30.61 23.7004 29.69 22.9604C27.98 21.5804 25.2 21.1504 22.99 21.7904C23.84 22.1004 24.62 22.5204 25.29 23.0504C26.47 24.0004 27.06 25.1904 26.96 26.4304C26.88 27.2904 26.46 28.1004 25.74 28.7504C26.99 28.7804 28.25 28.5204 29.25 27.9704Z" fill="#434665"/>
</svg>

<svg fill="none" height="42" viewBox="0 0 42 42" width="42" xmlns="http://www.w3.org/2000/svg"><rect fill="#1d202f" height="42" rx="8" width="42"/><path clip-rule="evenodd" d="m13.2502 15.75c0-2.62 2.13-4.75 4.75-4.75s4.75 2.13 4.75 4.75c-.01 2.57-2.02 4.65-4.58 4.74h-.02-.05c-.06-.01-.14-.01-.22 0-2.62-.09-4.63-2.17-4.63-4.74zm-.3202 7.3999c2.81-1.86 7.36-1.86 10.15 0 1.26.84 1.95 1.98 1.96 3.21 0 1.24-.7 2.38-1.96 3.23-1.4.94-3.24 1.41-5.08 1.41s-3.68-.47-5.08-1.41c-1.26-.84-1.96-1.98-1.96-3.21s.7-2.38 1.97-3.23zm16.0601-6.8098c.16 1.94-1.22 3.64-3.13 3.87h-.02-.03c-.06 0-.12 0-.17.02-.97.05-1.86-.26-2.53-.83 1.03-.92 1.62-2.3 1.5-3.8-.07-.81-.35-1.55-.77-2.18.38-.19.82-.31 1.27-.35 1.96-.17 3.71 1.29 3.88 3.27zm.2599 11.6303c1.04-.57 1.66-1.41 1.74-2.38.09-.96-.38-1.89-1.3-2.63-1.71-1.38-4.49-1.81-6.7-1.17.85.31 1.63.73 2.3 1.26 1.18.95 1.77 2.14 1.67 3.38-.08.86-.5 1.67-1.22 2.32 1.25.03 2.51-.23 3.51-.78z" fill="#434665" fill-rule="evenodd"/></svg>
